common/src/main/resources/icons/actions/matchCaseSelected.svg

<svg xmlns="http://www.w3.org/2000/svg" width="16" height="16" data-big="true" viewBox="0 0 24 24"><path fill="#64B5F6" d="M20.06 18a4 4 0 0 1-.2-.89c-.67.7-1.48 1.05-2.41 1.05-.83 0-1.52-.24-2.05-.71-.53-.45-.8-1.06-.8-1.79 0-.88.33-1.56 1-2.05s1.61-.73 2.83-.73h1.4v-.64q0-.735-.45-1.17c-.3-.29-.75-.43-1.33-.43-.52 0-.95.12-1.3.36-.35.25-.52.54-.52.89h-1.46c0-.43.15-.84.45-1.24.28-.4.71-.71 1.22-.94.51-.21 1.06-.35 1.69-.35.98 0 1.74.24 2.29.73s.84 1.16.86 2.02V16c0 .8.1 1.42.3 1.88V18zm-2.4-1.12c.45 0 .88-.11 1.29-.32.4-.21.7-.49.88-.83v-1.57H18.7c-1.77 0-2.66.47-2.66 1.41 0 .43.15.73.46.96.3.23.68.35 1.16.35m-12.2-3.17h4.07L7.5 8.29zM6.64 6h1.72l4.71 12h-1.93l-.97-2.57H4.82L3.86 18H1.93z"/></svg>

<!--
  - The MIT License (MIT)
  -
  - Copyright (c) 2015-2024 Elior "Mallowigi" Boukhobza
  -
  - Permission is hereby granted, free of charge, to any person obtaining a copy
  - of this software and associated documentation files (the "Software"), to deal
  - in the Software without restriction, including without limitation the rights
  - to use, copy, modify, merge, publish, distribute, sublicense, and/or sell
  - copies of the Software, and to permit persons to whom the Software is
  - furnished to do so, subject to the following conditions:
  -
  - The above copyright notice and this permission notice shall be included in all
  - copies or substantial portions of the Software.
  -
  - THE SOFTWARE IS PROVIDED "AS IS", WITHOUT WARRANTY OF ANY KIND, EXPRESS OR
  - IMPLIED, INCLUDING BUT NOT LIMITED TO THE WARRANTIES OF MERCHANTABILITY,
  - FITNESS FOR A PARTICULAR PURPOSE AND NONINFRINGEMENT. IN NO EVENT SHALL THE
  - AUTHORS OR COPYRIGHT HOLDERS BE LIABLE FOR ANY CLAIM, DAMAGES OR OTHER
  - LIABILITY, WHETHER IN AN ACTION OF CONTRACT, TORT OR OTHERWISE, ARISING FROM,
  - OUT OF OR IN CONNECTION WITH THE SOFTWARE OR THE USE OR OTHER DEALINGS IN THE
  - SOFTWARE.
  -->


<svg data-big="true" xmlns="http://www.w3.org/2000/svg" version="1.1" width="16px" height="16px" viewBox="0 0 24 24">
  <path fill="#64B5F6"
        d="M20.06,18C20,17.83 19.91,17.54 19.86,17.11C19.19,17.81 18.38,18.16 17.45,18.16C16.62,18.16 15.93,17.92 15.4,17.45C14.87,17 14.6,16.39 14.6,15.66C14.6,14.78 14.93,14.1 15.6,13.61C16.27,13.12 17.21,12.88 18.43,12.88H19.83V12.24C19.83,11.75 19.68,11.36 19.38,11.07C19.08,10.78 18.63,10.64 18.05,10.64C17.53,10.64 17.1,10.76 16.75,11C16.4,11.25 16.23,11.54 16.23,11.89H14.77C14.77,11.46 14.92,11.05 15.22,10.65C15.5,10.25 15.93,9.94 16.44,9.71C16.95,9.5 17.5,9.36 18.13,9.36C19.11,9.36 19.87,9.6 20.42,10.09C20.97,10.58 21.26,11.25 21.28,12.11V16C21.28,16.8 21.38,17.42 21.58,17.88V18H20.06M17.66,16.88C18.11,16.88 18.54,16.77 18.95,16.56C19.35,16.35 19.65,16.07 19.83,15.73V14.16H18.7C16.93,14.16 16.04,14.63 16.04,15.57C16.04,16 16.19,16.3 16.5,16.53C16.8,16.76 17.18,16.88 17.66,16.88M5.46,13.71H9.53L7.5,8.29L5.46,13.71M6.64,6H8.36L13.07,18H11.14L10.17,15.43H4.82L3.86,18H1.93L6.64,6Z"/>
</svg>
